X:1
T:Eighth of January
L:1/8
M:4/4
I:linebreak $
K:D
V:1 treble
V:1
 de |"D" (fe)fa (fe)df |"G" (ef)ed B2 cd |"A" e2 (ef) e(cBA) |"D" dBA(F D2) de | $
(fe)f(a fe)d(f |"G"  ef)e(d B2) cd |"A" e2 (ef) e(cBA )|"D" dBA(E D2) DE ||$
"D" F2 A2 A2 F2 | ABA(F ED)DE | F2 A2 A2 (AB) |"A" A(FEF) "D"D2 DE | $
"D "F2 A2 A2 F2 | ABA(F ED)DE | F2 A2 A2 AB |"A" (AFE) F "D"D2 z2 |]
